X:1
T: The Heather Breeze
P:Roche version
R:Reel
Q: 232
K:Em
M:4/4
L:1/8
|:E2 ((3GFE) BE GE|D2 ((3FED) AD FD|E2 ((3GFE) BE GE|Bc AF FE E2|
E2 ((3GFE) BE GE|D2 ((3FED) AD FD|E2 ((3GFE) BE GE|FB AF FE E2|
e2 ed eg fe|d2 d^c df ed|e2 ed eg fe|dB AF FE E2|
e2 ed eg fe|d2 d^c df ed|ef ge de fe|dB AF FE E2:|
